svg/file-icons/Mocha.svg

<svg version="1.1" xmlns="http://www.w3.org/2000/svg" width="310px" height="512px"><path d="M183.069809,153.3023682c79.6677704-58.6481247-17.7949982-112.0129852,0-153.3023682C109.7516403,74.2158737,185.5092163,95.3030319,183.069809,153.3023682z M123.5349274,157.7675323c54.0602264-40.5614624-16.1642151-78.5259399,0-102.6977005C75.4179459,107.1628647,122.7722397,112.2490692,123.5349274,157.7675323z M309.5814209,197.9535217c0-7.441864-5.9534912-14.8837128-14.883728-14.8837128H14.8837204C7.4418602,183.069809,0,189.0233154,0,197.9535217c0,50.6046753,7.4418602,224.7441711,81.8604584,309.5813293C84.8371582,510.5115356,87.8139725,512,92.2790222,512h125.0232697c4.4651642,0,7.441864-1.4883423,10.4185638-4.4651489C302.1394653,424.1860352,309.5812988,250.0464325,309.5814209,197.9535217z M199.4418793,468.8373108h-87.8139801c-4.4651566,0-7.4418564-1.4883728-10.4185562-4.4651794c-50.6046715-59.5348816-56.5581818-178.6046448-58.0465317-220.2790985c0-7.441864,5.9535103-14.8837128,14.8837204-14.8837128h196.4650574c7.441864,0,14.883728,5.9535065,14.883728,14.8837128c0,41.6744537-7.441864,159.2557526-58.0465393,220.2790985C206.8836212,467.3488464,203.9069214,468.8373108,199.4418793,468.8373108z M245.5814972,330.4186707c-5.9535065,40.1859741-17.8604126,86.3256226-43.1628113,116.0930481c-2.9766998,2.9767151-5.9535065,4.4651794-8.9302063,4.4651794h-74.418602c-2.9766998,0-7.441864-1.4883728-8.9302139-4.4651794c-17.8604126-22.325592-29.7674408-52.0930176-37.2092972-83.3488159C150.1417847,373.1480408,229.5355988,365.4741821,245.5814972,330.4186707z"/></svg>

<svg xmlns="http://www.w3.org/2000/svg" width="310" height="512"><path d="M183.07 153.302C262.738 94.654 165.275 41.29 183.07 0c-73.318 74.216 2.44 95.303 0 153.302zm-59.535 4.466c54.06-40.562-16.164-78.526 0-102.698-48.117 52.093-.763 57.18 0 102.698zm186.046 40.186c0-7.442-5.953-14.884-14.883-14.884H14.884C7.442 183.07 0 189.023 0 197.954c0 50.604 7.442 224.744 81.86 309.58 2.977 2.979 5.954 4.466 10.42 4.466h125.023c4.465 0 7.442-1.488 10.419-4.465 74.418-83.349 81.86-257.489 81.86-309.581zm-110.14 270.883h-87.813c-4.465 0-7.442-1.488-10.419-4.465-50.604-59.535-56.558-178.605-58.046-220.279 0-7.442 5.953-14.884 14.884-14.884h196.465c7.441 0 14.883 5.954 14.883 14.884 0 41.674-7.442 159.256-58.046 220.28-4.465 2.976-7.442 4.464-11.907 4.464zm46.14-138.418c-5.953 40.186-17.86 86.325-43.162 116.093-2.977 2.976-5.954 4.465-8.93 4.465h-74.42c-2.976 0-7.441-1.488-8.93-4.465-17.86-22.326-29.767-52.093-37.209-83.35 77.212 9.986 156.606 2.312 172.651-32.743z"/></svg>
